X: 1
T: New Day March, The
M: 4/4
L: 1/8
R: reel
K: Ador
|: edBA A2 BA | e2 dA BGGG | edBA A2 BA |Bddg eABd :|
eABA a2 ea | g2 dg BGGG | eA^ce ag (3fga | ga (3gfe d2 gd |
eABA a2 ea | g2 dg BGGG | e3 a agfa | g2 bg afgf ||

